!!!COM: Palestrina, Giovanni Perluigi da
!!!OPR: Missa L'homme arme (1570)
!!!OMD: Credo
!!!OTL: secundum Scripturas
**kern	**kern	**kern	**kern
*Ibass	*Itenor	*Icalto	*Icant
!Bassus	!Tenor	!Altus	!Cantus
*clefF4	*clefGv2	*clefG2	*clefG2
*k[]	*k[]	*k[]	*k[]
*G:mix	*G:mix	*G:mix	*G:mix
*M4/2	*M4/2	*M4/2	*M4/2
=127	=127	=127	=127
1E	2e	2r	0r
.	2e	2g	.
1r	2f#	2a	.
.	2g	2b	.
=128	=128	=128	=128
0r	2e	2.cc	0r
.	2.f	.	.
.	.	4b	.
.	.	4a	.
.	4e	4g	.
.	4d	4f	.
.	4c	4e	.
=129	=129	=129	=129
1r	2d	2f	0r
.	2.e	2.g	.
1E	.	.	.
.	4d	4f	.
.	[2c	2e	.
=130	=130	=130	=130
2F	2c]	1d	0r
2G	2B	.	.
2.A	1c	[1c	.
4G	.	.	.
=131	=131	=131	=131
2F	2r	1c]	0r
2E	2c	.	.
2D	2d	1r	.
2C	2e	.	.
=132	=132	=132	=132
4D	1f	1r	0r
4E	.	.	.
4F	.	.	.
4G	.	.	.
4A	2.e	2r	.
4B	.	.	.
[2c	.	2g	.
.	4d	.	.
=133	=133	=133	=133
2c]	4e	2a	0r
.	4f	.	.
2B	2g	2b	.
1A	2f	2.cc	.
.	2e	.	.
.	.	4b	.
=134	=134	=134	=134
2D	2f	2a	0r
2E	2e	2g	.
1F	4d	2f	.
.	4c	.	.
.	[2c	2e	.
=135	=135	=135	=135
1G	2c]	1d	2r
.	2B	.	2dd
1C	1c	2r	[1ee
.	.	2c	.
=136	=136	=136	=136
0r	0r	1g	2ee]
.	.	.	2dd
.	.	2g	2ee
.	.	2a	2ff#
=137	=137	=137	=137
0r	0r	2b	2.gg
.	.	2.cc	.
.	.	.	4ff
.	.	.	4ee
.	.	4b	4dd
.	.	4b	[2gg
.	.	8a	.
.	.	8g	.
=138	=138	=138	=138
1r	1d	1a	4gg]
.	.	.	8ff
.	.	.	8ee
.	.	.	2ff#
1C	[1e	[1g	1gg
=139	=139	=139	=139
2.G	2e]	1g]	0r
.	2d	.	.
4G	.	.	.
2G	2e	1r	.
2A	2f#	.	.
=140	=140	=140	=140
2B	2.g	0r	0r
2.c	.	.	.
.	4f	.	.
.	4e	.	.
4B	4d	.	.
4B	[2g	.	.
8A	.	.	.
8G	.	.	.
=141	=141	=141	=141
1A	2g]	2r	2r
.	2f#	2c	2cc
1G	1g	2.d	2.b
.	.	4c	4a
=142	=142	=142	=142
1r	1r	2d	2b
.	.	2e	2g
2r	2r	2f	2a
2G	2g	2d	2b
=143	=143	=143	=143
2.A	2.e	1c	1cc
4G	4e	.	.
2A	2f	1r	1r
2B	2d	.	.
=144	=144	=144	=144
2c	2e	2r	2r
2A	2f#	2c	2cc
[1G	1g	2.d	2.b
.	.	4c	4a
=145	=145	=145	=145
1G]	1r	2d	2b
.	.	2e	2g
2r	2r	2f	2a
2G	2g	2d	2b
=146	=146	=146	=146
2.A	2.e	1c	1cc
4G	4e	.	.
2A	2f	1r	1r
2B	2d	.	.
=147	=147	=147	=147
2c	2e	0r	0r
2A	2f#	.	.
1G	1g	.	.
=148	=148	=148	=148
0G	2r	0d	0b
.	4G	.	.
.	4A	.	.
.	4B	.	.
.	4c	.	.
.	4d	.	.
.	4e	.	.
=149	=149	=149	=149
1D	1.f	4d	2a
.	.	4e	.
.	.	4f	1dd
.	.	4g	.
2.F	.	2a	.
.	2f	2A	[2cc
4G	.	.	.
=150	=150	=150	=150
1A	2e	1c	4cc]
.	.	.	4b-
.	2.f	.	1a
1B-	.	1d	.
.	4e	.	.
.	[2d	.	2g
=151	=151	=151	=151
1.A	2d]	1.e	[0a
.	4c	.	.
.	4B	.	.
.	2c#	.	.
2A	2c#	2e	.
=152	=152	=152	=152
1D	1d	1f#	1a]
1D	1A	1f#	2r
.	.	.	[2dd
=153	=153	=153	=153
1G	1B	1g	2dd]
.	.	.	2ee
1F	1c	1a	1ff
=154	=154	=154	=154
1C	1c	2g	2ee
.	.	2c	2ee
1r	1r	4d	[1ff
.	.	4e	.
.	.	4f	.
.	.	4g	.
=155	=155	=155	=155
0r	1r	4a	2ff]
.	.	4b	.
.	.	1cc	2ee
.	2r	.	1dd
.	2G	2b	.
=156	=156	=156	=156
0r	4A	1a	2cc
.	4B	.	.
.	4c	.	2a
.	4d	.	.
.	4e	1g	2cc
.	4f#	.	.
.	[2g	.	2b
=157	=157	=157	=157
1r	2g]	1d	1a
.	2f	.	.
2r	1e	2r	1g
2C	.	2e	.
=158	=158	=158	=158
4D	2d	1f	0r
4E	.	.	.
4F	2A	.	.
4G	.	.	.
4A	2.c	1e	.
4B	.	.	.
[2c	.	.	.
.	4d	.	.
=159	=159	=159	=159
2c]	4e	2r	2r
.	4f#	.	.
2B	1g	2b	2g
1A	.	[1cc	4a
.	.	.	4b
.	2f#	.	4cc
.	.	.	4dd
=160	=160	=160	=160
1G	1g	2cc]	4ee
.	.	.	4ff#
.	.	2b	1gg
1r	2d	1a	.
.	2d	.	2ff
=161	=161	=161	=161
2r	4e	1g	1ee
.	4f	.	.
2C	4g	.	.
.	4e	.	.
4D	1f	2r	1dd
4E	.	.	.
4F	.	2a	.
4G	.	.	.
=162	=162	=162	=162
4A	1.e	2.cc	2r
4B	.	.	.
1c	.	.	2g
.	.	4b	.
.	.	2a	2a
2B	2d	[2g	2b
=163	=163	=163	=163
0A	0c	2g]	0cc
.	.	4f	.
.	.	4e	.
.	.	1f#	.
=164	=164	=164	=164
0G	0d	0g	0b
*-	*-	*-	*-
!!!CDT: 1525/^1526/-1594/2/2
!!!OCY: Italia
!!!AGN: Mass (Tenor)
!!!AST: renaissance, vocal
!!!ASW: Popular Song
!!!PWK: Masses, Book 3
!!!RNB: Cadence finals: C,D
!!!YOR: Le Opere Complete, v. 6, p. 97
!!!YOO: Rome, Italy: Fratelli Scalera
!!!END: 1992//
!!!EED: John Miller
!!!YEC: Copyright 2000, John Miller
!!!YEN: United States of America
!!!YEM: Rights to all derivative electronic formats reserved.
!!!YEM: Refer to licensing agreement for further details.
!!!YEM: This file must be accompanied by the licensing agreement.
!!!YEM: A copy of the licensing agreement may be found at http://www.music-cog.ohio-state.edu/HumdrumDatabases/Palestrina/license.txt
!!!EMD: converted to Humdrum by Bret Aarden
